img/chevron-down.svg

<svg fill="none" height="800" viewBox="0 0 24 24" width="800" xmlns="http://www.w3.org/2000/svg"><path clip-rule="evenodd" d="m3.29297 6.70711c.39052-.39053 1.02369-.39053 1.41421 0l7.29292 7.29289 7.2929-7.29289c.3905-.39053 1.0237-.39053 1.4142 0l.7071.7071c.3905.39053.3905 1.02369 0 1.41422l-8.3536 8.35357c-.5858.5858-1.5355.5858-2.1213 0l-8.35354-8.35357c-.39052-.39053-.39052-1.02369 0-1.41421z" fill="#000" fill-rule="evenodd"/></svg>

<?xml version="1.0" encoding="utf-8"?><!-- Uploaded to: SVG Repo, www.svgrepo.com, Generator: SVG Repo Mixer Tools -->
<svg width="800px" height="800px" viewBox="0 0 24 24" fill="none" xmlns="http://www.w3.org/2000/svg">
<path fill-rule="evenodd" clip-rule="evenodd" d="M3.29297 6.70711C3.68349 6.31658 4.31666 6.31658 4.70718 6.70711L12.0001 14L19.293 6.70711C19.6835 6.31658 20.3167 6.31658 20.7072 6.70711L21.4143 7.41421C21.8048 7.80474 21.8048 8.4379 21.4143 8.82843L13.0607 17.182C12.4749 17.7678 11.5252 17.7678 10.9394 17.182L2.58586 8.82843C2.19534 8.4379 2.19534 7.80474 2.58586 7.41422L3.29297 6.70711Z" fill="#000000"/>
</svg>
